assets/images/nav/bandera_es.svg

<svg width="24" height="24" viewBox="0 0 24 24" fill="none" xmlns="http://www.w3.org/2000/svg">
<path d="M0.75 12C0.75 14.2125 1.3875 16.275 2.475 18H21.4875C22.575 16.275 23.2125 14.2125 23.2125 12C23.2125 9.7875 22.575 7.725 21.4875 6H2.475C1.3875 7.725 0.75 9.7875 0.75 12Z" fill="#FFCE31"/>
<path d="M21.5246 6C19.5371 2.85 16.0121 0.75 11.9996 0.75C7.98711 0.75 4.46211 2.85 2.47461 6H21.5246ZM2.47461 18C4.46211 21.15 7.98711 23.25 11.9996 23.25C16.0121 23.25 19.5371 21.15 21.5246 18H2.47461Z" fill="#ED4C5C"/>
<path d="M3.4502 10.7625H4.6502V11.4375H3.4502V10.7625ZM3.4502 15.7125H4.6877V16.3499H3.4502V15.7125Z" fill="#C8B100"/>
<path d="M3.33789 14.6626C3.22539 14.7376 3.15039 14.8126 3.15039 14.8501C3.15039 14.8876 3.18789 14.9251 3.26289 14.9626C3.33789 15.0001 3.41289 15.0751 3.37539 15.1501C3.45039 15.0751 3.48789 15.0001 3.48789 14.9251C3.48789 14.8126 3.41289 14.7001 3.33789 14.6626" fill="#ED4C5C"/>
<path d="M3.6377 11.4375H4.5002V15.7125H3.6377V11.4375Z" fill="white"/>
<path d="M5.40023 13.0125C5.21273 12.9375 4.87523 12.8625 4.50023 12.8625C4.38773 12.8625 4.23773 12.8625 4.08773 12.9C3.56273 12.975 3.15023 13.2 3.18773 13.35L3.00023 12.9375C2.96273 12.75 3.41273 12.525 3.97523 12.4125C4.16273 12.375 4.35023 12.375 4.50023 12.375C4.87523 12.375 5.21273 12.4125 5.40023 12.4875V13.0125" fill="#ED4C5C"/>
<path d="M3.63809 13.575C3.41309 13.575 3.22559 13.5 3.22559 13.3875C3.22559 13.3125 3.30059 13.2 3.45059 13.125H3.67559L3.63809 13.575ZM4.50059 13.2375C4.65059 13.275 4.76309 13.3125 4.83809 13.35C4.87559 13.3875 4.72559 13.5375 4.50059 13.65V13.2375" fill="#ED4C5C"/>
<path d="M3.07486 14.4001C3.03736 14.3251 3.29986 14.1751 3.63736 14.0626C3.78736 14.0251 3.89986 13.9501 4.08736 13.8751C4.53736 13.6876 4.91236 13.4251 4.83736 13.3501L4.91236 13.8001C4.94986 13.8751 4.64986 14.1001 4.19986 14.3251C4.04986 14.4001 3.78736 14.5126 3.63736 14.5501C3.37486 14.6251 3.14986 14.7751 3.14986 14.8126L3.07486 14.4001" fill="#ED4C5C"/>
<path d="M11.5121 10.7625H12.7121V11.4375H11.5121V10.7625ZM11.4746 15.7125H12.7121V16.3499H11.4746V15.7125Z" fill="#C8B100"/>
<path d="M12.8248 14.6626C12.9373 14.7376 13.0123 14.8126 13.0123 14.8501C13.0123 14.8876 12.9748 14.9251 12.8998 14.9626C12.8248 15.0376 12.7498 15.1501 12.7873 15.1876C12.7123 15.1126 12.6748 15.0376 12.6748 14.9626C12.6748 14.8126 12.7498 14.7001 12.8248 14.6626" fill="#ED4C5C"/>
<path d="M11.6621 11.4375H12.5246V15.7125H11.6621V11.4375Z" fill="white"/>
<path d="M10.7627 13.0125C10.9502 12.9375 11.2877 12.8625 11.6627 12.8625C11.7752 12.8625 11.9252 12.8625 12.0752 12.9C12.6002 12.975 13.0127 13.2 12.9752 13.35L13.1627 12.9C13.2002 12.7125 12.7502 12.4875 12.1877 12.375H11.6627C11.2877 12.375 10.9502 12.4125 10.7627 12.4875V13.0125" fill="#ED4C5C"/>
<path d="M12.5251 13.575C12.7501 13.575 12.9376 13.5 12.9376 13.3875C12.9376 13.3125 12.8626 13.2 12.7126 13.125H12.4876L12.5251 13.575ZM11.6626 13.2375C11.5126 13.275 11.4001 13.3125 11.3251 13.35C11.2876 13.3875 11.4376 13.5375 11.6626 13.65V13.2375" fill="#ED4C5C"/>
<path d="M13.0873 14.4001C13.1248 14.3251 12.8623 14.175 12.5248 14.0625C12.3748 14.025 12.2623 13.95 12.0748 13.875C11.6248 13.6875 11.2498 13.425 11.3248 13.35L11.2498 13.8C11.2123 13.875 11.5123 14.1 11.9623 14.325C12.1123 14.4 12.3748 14.5125 12.5248 14.55C12.7873 14.625 13.0123 14.8125 12.9748 14.85L13.0873 14.4001V14.4001ZM8.0623 8.36255C8.7748 8.36255 10.2373 8.51255 10.7623 9.03755C10.1998 10.3875 9.2998 9.82505 8.0623 9.82505C6.8623 9.82505 5.9248 10.3875 5.3623 9.03755C5.8873 8.51255 7.3123 8.36255 8.0623 8.36255Z" fill="#ED4C5C"/>
<path d="M9.8998 9.8625C9.4498 9.6 8.7748 9.5625 8.0623 9.5625C7.3498 9.5625 6.6748 9.6375 6.2248 9.8625L6.3748 10.5C6.7873 10.6125 7.3873 10.6875 8.0623 10.725C8.7373 10.725 9.2998 10.65 9.7498 10.5L9.8998 9.8625ZM10.5373 8.25C10.3873 8.1375 10.0873 8.025 9.8248 8.025C9.7123 8.025 9.5998 8.025 9.4873 8.0625C9.4873 8.0625 9.2623 7.7625 8.7373 7.7625C8.5498 7.7625 8.3998 7.8 8.2498 7.875V7.8375C8.2123 7.7625 8.1373 7.6875 8.0623 7.6875C7.9873 7.6875 7.8748 7.8 7.8748 7.875V7.9125C7.7248 7.8375 7.5748 7.8 7.3873 7.8C6.8623 7.8 6.6373 8.1375 6.6373 8.1C6.5248 8.0625 6.4123 8.0625 6.2998 8.0625C4.5748 8.0625 5.4373 9.225 5.4373 9.225L5.6248 9C5.2123 8.475 5.5873 8.175 6.3373 8.175C6.4498 8.175 6.5248 8.175 6.5998 8.2125C6.3373 8.5875 6.8248 8.925 6.8248 8.925L6.9373 8.7375C6.6748 8.55 6.6373 7.9125 7.3873 7.9125C7.5748 7.9125 7.7248 7.95 7.8748 8.0625C7.8748 8.1 7.8373 8.625 7.7998 8.7L8.0998 8.9625L8.3998 8.7C8.3623 8.5875 8.32481 8.1 8.32481 8.0625C8.43731 7.9875 8.6248 7.9125 8.8123 7.9125C9.5998 7.9125 9.5998 8.55 9.2623 8.7375L9.3748 8.925C9.3748 8.925 9.7873 8.5875 9.5998 8.2125C9.6748 8.2125 9.7873 8.175 9.8623 8.175C10.7623 8.175 10.7998 8.85 10.5748 9L10.7248 9.225C10.6498 9.225 11.0623 8.7 10.5373 8.25" fill="#C8B100"/>
<path d="M7.83789 7.5375C7.83789 7.425 7.95039 7.3125 8.06289 7.3125C8.17539 7.3125 8.28789 7.425 8.28789 7.5375C8.28789 7.65 8.17539 7.7625 8.06289 7.7625C7.95039 7.7625 7.83789 7.65 7.83789 7.5375Z" fill="#005BBF"/>
<path d="M7.98789 6.8999V7.0124H7.87539V7.1249H7.98789V7.4999H7.83789V7.6124H8.28789L8.32539 7.5374L8.28789 7.4999H8.13789V7.1249H8.25039V7.0124H8.13789V6.8999H7.98789Z" fill="#C8B100"/>
<path d="M8.06289 10.6125C7.46289 10.6125 6.93789 10.5375 6.52539 10.425C6.93789 10.3125 7.46289 10.2375 8.06289 10.2375C8.66289 10.2375 9.18789 10.3125 9.60039 10.425C9.22539 10.5375 8.66289 10.6125 8.06289 10.6125Z" fill="#ED4C5C"/>
<path d="M8.10039 17.1001C7.38789 17.1001 6.71289 16.9126 6.11289 16.6501C5.66289 16.4251 5.40039 16.0126 5.40039 15.5251V13.7251H10.8004V15.5251C10.8004 16.0126 10.5004 16.4626 10.0879 16.6501C9.48789 16.9501 8.81289 17.1001 8.10039 17.1001ZM8.06289 10.7251H10.7629V13.7251H8.06289V10.7251Z" fill="white"/>
<path d="M8.10039 15.5251C8.10039 16.2376 7.50039 16.8001 6.75039 16.8001C6.00039 16.8001 5.40039 16.2376 5.40039 15.5251V13.7251H8.10039V15.5251Z" fill="#ED4C5C"/>
<path d="M5.9623 16.5749C6.0373 16.6124 6.1498 16.6874 6.2998 16.7249V13.6499H5.9998L5.9623 16.5749ZM5.3623 15.4874C5.3623 15.8624 5.5123 16.1624 5.6623 16.3124V13.6499H5.3623V15.4874Z" fill="#C8B100"/>
<path d="M6.5625 16.7999H6.8625V13.6499H6.5625V16.7999Z" fill="#C7B500"/>
<path d="M7.16211 16.7249C7.27461 16.6874 7.42461 16.6124 7.49961 16.5749V13.6499H7.19961L7.16211 16.7249" fill="#C8B100"/>
<path d="M5.3623 10.7251H8.0623V13.7251H5.3623V10.7251Z" fill="#ED4C5C"/>
<path d="M7.7998 16.3125C7.9498 16.2 8.06231 15.9375 8.09981 15.6375V13.6875H7.7998V16.3125Z" fill="#C8B100"/>
<path d="M10.8004 13.7251V15.5251C10.8004 16.2376 10.2004 16.8001 9.45039 16.8001C8.70039 16.8001 8.10039 16.2376 8.10039 15.5251V13.7251H10.8004V13.7251ZM9.82539 11.2501C9.93789 11.4751 9.93789 12.0376 9.60039 11.9251C9.67539 11.9626 9.71289 12.2251 9.82539 12.3751C10.0129 12.6001 10.2379 12.4126 10.2004 12.1501C10.1254 11.7376 10.1629 11.4751 10.2379 11.0626C10.2379 11.1001 10.4254 11.1001 10.5004 11.0251C10.4629 11.1376 10.4254 11.2876 10.5004 11.2876C10.4254 11.4001 10.2379 11.5876 10.2004 11.7001C10.1629 11.9626 10.5754 12.4501 10.1254 12.5626C9.82539 12.6376 10.0129 12.8626 10.1254 12.9751C10.1254 12.9751 9.97539 13.4626 10.0504 13.4251C9.75039 13.5376 9.82539 13.2751 9.82539 13.2751C9.97539 12.8251 9.56289 12.7876 9.60039 12.7126C9.22539 12.6751 9.63789 13.0501 9.30039 13.0501C9.22539 13.0501 9.07539 13.1251 9.07539 13.1251C8.66289 13.0876 8.88789 12.7126 9.03789 12.7501C9.15039 12.7876 9.26289 12.9751 9.26289 12.7126C9.26289 12.7126 9.07539 12.4126 9.56289 12.4126C9.37539 12.4126 9.26289 12.2626 9.18789 12.0751C9.11289 12.1126 9.00039 12.3001 8.58789 12.3376C8.58789 12.3376 8.47539 11.9251 8.58789 12.0001C8.73789 12.0751 8.81289 12.0751 8.96289 11.9251C8.88789 11.8126 8.43789 11.6626 8.51289 11.4001C8.51289 11.3251 8.73789 11.2126 8.73789 11.2126C8.70039 11.4001 8.81289 11.5876 9.03789 11.5876C9.33789 11.6251 9.22539 11.5126 9.26289 11.4376C9.30039 11.3626 9.52539 11.4751 9.45039 11.2876C9.45039 11.2501 9.18789 11.2126 9.26289 11.1001C9.41289 10.9126 9.63789 11.0626 9.82539 11.2501V11.2501ZM8.10039 16.7251L8.02539 16.5376L8.10039 16.3126L8.17539 16.5376L8.10039 16.7251Z" fill="#ED4C5C"/>
<path d="M6.18789 11.3625V11.55H6.26289V11.7H6.07539V12.075H6.18789V12.9H5.96289V13.3125H7.50039V12.9H7.31289V12.075H7.38789V11.7H7.20039V11.55H7.31289V11.3625H6.93789V11.55H7.01289V11.7H6.82539V11.25H6.93789V11.0625H6.52539V11.25H6.63789V11.7H6.45039V11.55H6.52539V11.3625H6.18789ZM10.4254 15.975V14.1H8.47539V15.975L9.37539 16.3875H9.48789L10.4254 15.975ZM9.37539 14.25V14.8875L8.73789 14.25H9.37539ZM8.58789 14.2875L9.33789 15.0375L8.58789 15.7875V14.2875ZM8.66289 15.9375L9.37539 15.225V16.275L8.66289 15.9375ZM9.48789 16.2375V15.1875L10.2004 15.9L9.48789 16.2375ZM10.2754 15.7875L9.52539 15.0375L10.2754 14.2875V15.7875ZM9.48789 14.25H10.1254L9.48789 14.8875V14.25Z" fill="#C8B100"/>
<path d="M7.2002 13.6874C7.2002 13.1249 7.57519 12.7124 8.06269 12.7124C8.55019 12.7124 8.92519 13.1624 8.92519 13.6874C8.92519 14.2124 8.55019 14.6624 8.06269 14.6624C7.57519 14.6624 7.2002 14.2499 7.2002 13.6874Z" fill="#ED4C5C"/>
<path d="M7.46289 13.6876C7.46289 13.2751 7.72539 12.9751 8.06289 12.9751C8.40039 12.9751 8.66289 13.3126 8.66289 13.6876C8.66289 14.1001 8.40039 14.4001 8.06289 14.4001C7.72539 14.4001 7.46289 14.1001 7.46289 13.6876Z" fill="#005BBF"/>
<path d="M7.80039 13.2L7.65039 13.6125L7.76289 13.65L7.68789 13.8H7.91289L7.83789 13.65L7.95039 13.6125L7.80039 13.2V13.2ZM8.36289 13.2L8.21289 13.6125L8.32539 13.65L8.25039 13.8H8.47539L8.43789 13.65L8.55039 13.6125L8.36289 13.2V13.2ZM8.10039 13.6875L7.91289 14.0999L8.02539 14.1375L7.98789 14.2874H8.17539L8.13789 14.1375L8.25039 14.0999L8.10039 13.6875Z" fill="#C8B100"/>
</svg>

<svg xmlns="http://www.w3.org/2000/svg" width="24" height="24" fill="none" xmlns:v="https://vecta.io/nano"><style><![CDATA[.B{fill:#ed4c5c}.C{fill:#c8b100}]]></style><path d="M.75 12c0 2.213.638 4.275 1.725 6h19.013c1.087-1.725 1.725-3.787 1.725-6s-.637-4.275-1.725-6H2.475C1.388 7.725.75 9.788.75 12z" fill="#ffce31"/><path d="M21.525 6A11.25 11.25 0 0 0 12 .75 11.25 11.25 0 0 0 2.475 6h19.05zM2.475 18A11.25 11.25 0 0 0 12 23.25 11.25 11.25 0 0 0 21.525 18H2.475z" class="B"/><path d="M3.45 10.763h1.2v.675h-1.2v-.675zm0 4.95h1.238v.637H3.45v-.637z" class="C"/><path d="M3.338 14.663c-.112.075-.187.15-.187.188s.038.075.113.113.15.113.112.188c.075-.075.113-.15.113-.225 0-.113-.075-.225-.15-.263" class="B"/><path d="M3.638 11.438H4.5v4.275h-.863v-4.275z" fill="#fff"/><g class="B"><path d="M5.4 13.013c-.187-.075-.525-.15-.9-.15-.112 0-.263 0-.413.037-.525.075-.937.3-.9.45L3 12.938c-.038-.187.412-.412.975-.525.188-.037.375-.037.525-.037.375 0 .712.037.9.113v.525"/><path d="M3.638 13.575c-.225 0-.413-.075-.413-.187 0-.075.075-.187.225-.262h.225l-.038.45zm.862-.337c.15.037.263.075.338.112.037.037-.112.188-.338.3v-.412"/><path d="M3.075 14.4c-.038-.075.225-.225.563-.338.15-.037.262-.112.45-.187.45-.187.825-.45.75-.525l.075.45c.038.075-.262.3-.712.525a3.52 3.52 0 0 1-.562.225c-.263.075-.488.225-.488.262l-.075-.412"/></g><path d="M11.512 10.763h1.2v.675h-1.2v-.675zm-.037 4.95h1.237v.637h-1.237v-.637z" class="C"/><path d="M12.825 14.663c.113.075.188.15.188.188s-.037.075-.112.113c-.075.075-.15.188-.113.225-.075-.075-.113-.15-.113-.225 0-.15.075-.262.15-.3" class="B"/><path d="M11.662 11.438h.862v4.275h-.862v-4.275z" fill="#fff"/><g class="B"><path d="M10.763 13.013c.188-.075.525-.15.9-.15.113 0 .263 0 .413.037.525.075.938.3.9.45l.188-.45c.038-.187-.412-.412-.975-.525h-.525c-.375 0-.712.037-.9.113v.525"/><path d="M12.525 13.575c.225 0 .412-.075.412-.187 0-.075-.075-.187-.225-.262h-.225l.037.45zm-.863-.337c-.15.037-.262.075-.337.112-.038.037.112.188.337.3v-.412"/><path d="M13.087 14.4c.037-.075-.225-.225-.562-.338-.15-.037-.263-.113-.45-.187-.45-.187-.825-.45-.75-.525l-.075.45c-.037.075.262.3.713.525a3.52 3.52 0 0 0 .563.225c.262.075.487.262.45.3l.113-.45h0zM8.062 8.363c.713 0 2.175.15 2.7.675-.562 1.35-1.463.787-2.7.787-1.2 0-2.137.562-2.7-.787.525-.525 1.95-.675 2.7-.675z"/></g><path d="M9.9 9.863c-.45-.263-1.125-.3-1.838-.3s-1.388.075-1.838.3l.15.637c.413.113 1.013.188 1.688.225.675 0 1.237-.075 1.688-.225l.15-.637zm.637-1.613a1.34 1.34 0 0 0-.713-.225c-.112 0-.225 0-.338.037 0 0-.225-.3-.75-.3-.187 0-.337.037-.487.112v-.037c-.037-.075-.113-.15-.187-.15s-.188.112-.188.188v.037c-.15-.075-.3-.112-.487-.112-.525 0-.75.337-.75.3-.112-.037-.225-.037-.337-.037-1.725 0-.863 1.162-.863 1.162L5.625 9c-.412-.525-.037-.825.713-.825.112 0 .188 0 .263.037-.263.375.225.713.225.713l.112-.187c-.262-.187-.3-.825.45-.825.188 0 .338.038.487.15 0 .037-.037.563-.075.637l.3.263.3-.263c-.038-.112-.075-.6-.075-.637a.94.94 0 0 1 .487-.15c.787 0 .787.638.45.825l.113.188s.412-.338.225-.713c.075 0 .188-.037.262-.037.9 0 .938.675.713.825l.15.225c-.075 0 .338-.525-.187-.975" class="C"/><path d="M7.838 7.538c0-.112.112-.225.225-.225s.225.112.225.225-.113.225-.225.225-.225-.112-.225-.225z" fill="#005bbf"/><path d="M7.988 6.9v.113h-.112v.112h.112V7.5h-.15v.112h.45l.037-.075-.037-.037h-.15v-.375h.112v-.112h-.112V6.9h-.15z" class="C"/><path d="M8.063 10.613c-.6 0-1.125-.075-1.537-.187.413-.113.938-.187 1.537-.187s1.125.075 1.538.188c-.375.112-.937.188-1.538.188z" class="B"/><path d="M8.1 17.1c-.713 0-1.388-.187-1.988-.45-.45-.225-.713-.637-.713-1.125v-1.8h5.4v1.8c0 .487-.3.937-.713 1.125-.6.3-1.275.45-1.988.45zm-.038-6.375h2.7v3h-2.7v-3z" fill="#fff"/><path d="M8.1 15.525c0 .713-.6 1.275-1.35 1.275s-1.35-.562-1.35-1.275v-1.8h2.7v1.8z" class="B"/><path d="M5.962 16.575c.075.038.188.113.338.15V13.65H6l-.037 2.925zm-.6-1.088c0 .375.15.675.3.825V13.65h-.3v1.837z" class="C"/><path d="M6.563 16.8h.3v-3.15h-.3v3.15z" fill="#c7b500"/><path d="M7.162 16.725c.112-.038.263-.113.337-.15V13.65h-.3l-.037 3.075" class="C"/><path d="M5.362 10.725h2.7v3h-2.7v-3z" class="B"/><path d="M7.8 16.313c.15-.113.263-.375.3-.675v-1.95h-.3v2.625z" class="C"/><path d="M10.8 13.725v1.8c0 .713-.6 1.275-1.35 1.275s-1.35-.562-1.35-1.275v-1.8h2.7 0zm-.975-2.475c.112.225.112.787-.225.675.075.037.112.3.225.45.188.225.413.037.375-.225-.075-.412-.037-.675.037-1.088 0 .037.188.037.263-.037-.038.113-.075.262 0 .262-.075.113-.263.3-.3.413-.037.262.375.75-.075.862-.3.075-.113.3 0 .412 0 0-.15.488-.075.45-.3.112-.225-.15-.225-.15.15-.45-.263-.488-.225-.562-.375-.037.037.338-.3.338-.075 0-.225.075-.225.075-.412-.037-.187-.412-.037-.375.112.037.225.225.225-.037 0 0-.187-.3.3-.3-.187 0-.3-.15-.375-.337-.075.037-.187.225-.6.262 0 0-.112-.412 0-.338.15.075.225.075.375-.075-.075-.113-.525-.263-.45-.525 0-.075.225-.187.225-.187-.037.188.075.375.3.375.3.037.188-.075.225-.15s.262.037.188-.15c0-.037-.263-.075-.187-.187.15-.187.375-.037.563.15h0zM8.1 16.725l-.075-.187.075-.225.075.225-.075.188z" class="B"/><path d="M6.188 11.363v.188h.075v.15h-.187v.375h.113v.825h-.225v.412H7.5V12.9h-.187v-.825h.075V11.7H7.2v-.15h.113v-.187h-.375v.188h.075v.15h-.187v-.45h.113v-.187h-.413v.188h.112v.45H6.45v-.15h.075v-.187h-.337zm4.238 4.612V14.1h-1.95v1.875l.9.412h.113l.938-.412zm-1.05-1.725v.637l-.637-.637h.637zm-.787.037l.75.75-.75.75v-1.5zm.075 1.65l.712-.713v1.05l-.712-.337zm.825.3v-1.05l.713.713-.713.338zm.788-.45l-.75-.75.75-.75v1.5zm-.788-1.537h.638l-.638.637v-.637z" class="C"/><path d="M7.2 13.687c0-.562.375-.975.862-.975s.863.45.863.975-.375.975-.863.975-.862-.412-.862-.975z" class="B"/><path d="M7.463 13.688c0-.412.263-.713.6-.713s.6.338.6.713c0 .412-.263.713-.6.713s-.6-.3-.6-.713z" fill="#005bbf"/><path d="M7.8 13.2l-.15.413.112.037-.075.15h.225l-.075-.15.112-.037-.15-.413h0zm.563 0l-.15.413.113.037-.075.15h.225l-.038-.15.113-.037-.187-.413h0zm-.262.488l-.188.412.112.038-.037.15h.188l-.037-.15.112-.038-.15-.412z" class="C"/></svg>
